X: 28
T: Asmar Aghchik
B: incoming
M:2/4
L:1/16
Q: 1/4=120
K:C
V:1 treble
 z8             | z8                     |\
 z8             | z8                     |
 z8             | z8                     |\
 z8             |[1 z8                   :|[2
 z8             | z2 G A B2 B2        |\
 B4 BA AG       | z2 G A B2 B2           |
 B4 BA AG       |z8                      |\
 z8             | z8                     |
 z8             | B2 BA c2 cB            |\
 B2 A2 AB G2    | A2 AG B2 BA            |
 A2 G2 GA ^F2   |G2 G^F A2 AG            |\
 G=F FE F2E2    | F2 FE A2 AG            |
 GF FE E4       |]
V:2 treble
 B2BA c2cB      |\
 BAA2 ABG2      | A2AG B2BA              |\
 AGG2 GA^F2     |
 G2G^F A2AG     | G=FF2 FGE2             |\
 F2FE A2AG      |[1GFFE EFGA             :|[2
 GFFE E4        |[K:bass] G,4 G,4 |\
 G,4 D,4        |G,4 G,4                 |
 G,4 D,2G,2     |[K:treble] z2 G A B2 B2 |\
 B4 BA AG       |z2 G A B2 B2            |
 B4 BA AG       |[K:bass] E,4 E,4        |\
 E,2^F,2 G,2A,2 |A,4 A,4                 |
 A,4 A,4        |E,4 E,4                 |\
 F,4 F,4        |D,4 D,4                 |
 E,4 E,4 |]
W: from Martin Junghans/Jutta Weber-Karn transcription
W: http://www.folkloretanznoten.de/
W: extracting score using Audiveris OMR engine
% abcbook-tune_id 63cb082fab8c03d004905cf4
% abcbook-tune_composer_id 
% abcbook-boost 0
% abcbook-difficulty 0
% abcbook-tags balkan dances
% abcbook-tablature 
% abcbook-transpose 
% abcbook-tuning 
% abcbook-lastupdated 1674250287865
% abcbook-soundfonts 
% abcbook-repeats 1
%%score 1 2

